cdn/fa/svgs/sharp-thin/up-from-line.svg

<svg xmlns="http://www.w3.org/2000/svg" viewBox="0 0 384 512"><!--! Font Awesome Pro 6.5.1 by @fontawesome - https://fontawesome.com License - https://fontawesome.com/license (Commercial License) Copyright 2023 Fonticons, Inc. --><path d="M128 224H112 48 32V208 192L180.7 43.3 192 32l11.3 11.3L352 192v16 16H336 272 256v16V368v16H240 144 128V368 240 224zm0-16h16v16V368h96V224 208h16 80v-9.4L192 54.6 48 198.6V208h80zM8 480H0V464H8 376h8v16h-8H8z"/></svg>

<svg xmlns="http://www.w3.org/2000/svg" viewBox="0 0 384 512"><!--! Font Awesome Pro 6.5.2 by @fontawesome - https://fontawesome.com License - https://fontawesome.com/license (Commercial License) Copyright 2024 Fonticons, Inc. --><path d="M128 224l-16 0-64 0-16 0 0-16 0-16L180.7 43.3 192 32l11.3 11.3L352 192l0 16 0 16-16 0-64 0-16 0 0 16 0 128 0 16-16 0-96 0-16 0 0-16 0-128 0-16zm0-16l16 0 0 16 0 144 96 0 0-144 0-16 16 0 80 0 0-9.4L192 54.6 48 198.6l0 9.4 80 0zM8 480l-8 0 0-16 8 0 368 0 8 0 0 16-8 0L8 480z"/></svg>
